packages/ffe-icons/icons/open/400/sm/insert_page_break.svg

<svg xmlns="http://www.w3.org/2000/svg" height="20" viewBox="0 -960 960 960" width="20"><path d="M264-96q-29 0-50.5-21.15T192-168v-84q0-15.3 10.29-25.65Q212.58-288 227.79-288t25.71 10.35Q264-267.3 264-252v84h432v-84q0-15.3 10.29-25.65Q716.58-288 731.79-288t25.71 10.35Q768-267.3 768-252v84q0 29.7-21.5 50.85Q725-96 696-96H264Zm-72-696q0-29.7 21.15-50.85Q234.3-864 264-864h282q14.22 0 27.11 5Q586-854 597-843l150 150q11 11 16 23.89t5 27.11v102q0 15.3-10.29 25.65Q747.42-504 732.21-504t-25.71-10.35Q696-524.7 696-540v-84H564q-15.3 0-25.65-10.35Q528-644.7 528-660v-132H264v252q0 15.3-10.29 25.65Q243.42-504 228.21-504t-25.71-10.35Q192-524.7 192-540v-252Zm228 432q-15.3 0-25.65-10.29Q384-380.58 384-395.79t10.35-25.71Q404.7-432 420-432h120q15.3 0 25.65 10.29Q576-411.42 576-396.21t-10.35 25.71Q555.3-360 540-360H420Zm288 0q-15.3 0-25.65-10.29Q672-380.58 672-395.79t10.35-25.71Q692.7-432 708-432h120q15.3 0 25.65 10.29Q864-411.42 864-396.21t-10.35 25.71Q843.3-360 828-360H708Zm-576 0q-15.3 0-25.65-10.29Q96-380.58 96-395.79t10.35-25.71Q116.7-432 132-432h120q15.3 0 25.65 10.29Q288-411.42 288-396.21t-10.35 25.71Q267.3-360 252-360H132Zm348-144Zm0 216Z"/></svg>

<svg xmlns="http://www.w3.org/2000/svg" height="20" viewBox="0 -960 960 960" width="20"><path d="M264-96q-29 0-50.5-21.15T192-168v-84q0-15.3 10.289-25.65 10.29-10.35 25.5-10.35Q243-288 253.5-277.65 264-267.3 264-252v84h432v-84q0-15.3 10.289-25.65 10.29-10.35 25.5-10.35Q747-288 757.5-277.65 768-267.3 768-252v84q0 29.7-21.5 50.85Q725-96 696-96H264Zm-72-696q0-29.7 21.15-50.85Q234.3-864 264-864h282q14.222 0 27.111 5Q586-854 597-843l150 150q11 11 16 23.889T768-642v102q0 15.3-10.289 25.65-10.29 10.35-25.5 10.35Q717-504 706.5-514.35 696-524.7 696-540v-84H564q-15.3 0-25.65-10.35Q528-644.7 528-660v-132H264v252q0 15.3-10.289 25.65-10.29 10.35-25.5 10.35Q213-504 202.5-514.35 192-524.7 192-540v-252Zm228 432q-15.3 0-25.65-10.289-10.35-10.29-10.35-25.5Q384-411 394.35-421.5 404.7-432 420-432h120q15.3 0 25.65 10.289 10.35 10.29 10.35 25.5Q576-381 565.65-370.5 555.3-360 540-360H420Zm288 0q-15.3 0-25.65-10.289-10.35-10.29-10.35-25.5Q672-411 682.35-421.5 692.7-432 708-432h120q15.3 0 25.65 10.289 10.35 10.29 10.35 25.5Q864-381 853.65-370.5 843.3-360 828-360H708Zm-576 0q-15.3 0-25.65-10.289Q96-380.579 96-395.789 96-411 106.35-421.5 116.7-432 132-432h120q15.3 0 25.65 10.289 10.35 10.29 10.35 25.5Q288-381 277.65-370.5 267.3-360 252-360H132Zm348-144Zm0 216Z"/></svg>
